X: 1001
T: Steward's Rant
P: Longways for as many as will
C:
R: reel
B: "Caledonian Country Dances" printed by John Walsh for John Johnson, London
S: http://imslp.org/wiki/Caledonian_Country_Dances_with_a_Thorough_Bass_(Various)
Z: 2013 John Chambers <jc:trillian.mit.edu>
N: The 2nd part has initial repeat but no final repeat.
M: C
L: 1/8
K: G
V: 1
|: B/c/d e/f/g d2 B2 | cA=fA cA=fA | B/c/d e/f/g d2 B2 | cA (Tfe/f/) g2 G2 :|
|: BG G/G/G BGBG | AD D/D/D ADAD | BG G/G/G BGBG | AD D/D/D d2 G2 :|
V: 2 clef=bass middle=d
|: g2c'2 g4 | d4 d4 | g2c2 G4 | c2d2 GBdg :|
|: g2G2 g2G2 | d2D2 d2D2 | g2G2 g2G2 | d2D2 G4 :|
%%begintext align
The 1st Man foots it to the 2d Wo. and turns her .|
The 1st Wo. does the same :|
cross over two Cu. .|.
Lead up to the top, foot it and cast off :|:
Foot it Corners and turn .|:
Foot it the other Corners and turn :||
Lead out thro' the Man's side and turn, Lead out thro' the Wo. side and turn it out. :||:
%%endtext
